X:12537
T:Oyster Girl
M:6/8
L:1/8
R:jig
Z:From Josephine Marsh in Kilfenora, 1996
K:G
ded B2 G|A2 F D2 F|GFG BAB|d2 c A2 d|ded Bdg|f2 e c2e|\
d2 B c BA|GAG G2 d:|Bcd Bcd|e2 c e2c|ABc ABc|d2 B d2 B|\
ded Bdg|f2 e c2 e|d2 B cBA|GAG G2 d:||\
